icons/unlink.svg

<svg width="24" height="24" viewBox="0 0 24 24" fill="none" xmlns="http://www.w3.org/2000/svg">
<path fill-rule="evenodd" clip-rule="evenodd" d="M8 2C8.55228 2 9 2.44772 9 3V5C9 5.55228 8.55228 6 8 6C7.44772 6 7 5.55228 7 5V3C7 2.44772 7.44772 2 8 2ZM13.0828 3.50034C14.0646 2.53751 15.3922 2 16.7724 2C18.1526 2 19.4801 2.53751 20.4619 3.50034L19.7705 4.20542L20.4619 3.50034C21.4444 4.46382 22 5.77478 22 7.14593C22 8.51708 21.4444 9.82803 20.4619 10.7915L15.6824 15.4787C15.1994 15.9611 14.6245 16.3433 13.9917 16.6041C13.3571 16.8656 12.6765 17 11.9894 17C11.3023 17 10.6216 16.8656 9.98709 16.6041C9.35254 16.3426 8.77627 15.959 8.29258 15.4749C7.90223 15.0842 7.90251 14.451 8.29321 14.0607C8.68391 13.6704 9.31708 13.6706 9.70742 14.0613C10.0031 14.3572 10.357 14.5934 10.7491 14.7549C11.1412 14.9165 11.5629 15 11.9894 15C12.4158 15 12.8376 14.9165 13.2297 14.7549C13.6217 14.5934 13.9757 14.3572 14.2713 14.0613L14.2785 14.0541L14.2786 14.0542L19.0616 9.36357C19.6648 8.77202 20 7.97391 20 7.14593C20 6.31794 19.6648 5.51983 19.0616 4.92829C18.4577 4.33609 17.6346 4 16.7724 4C15.9101 4 15.087 4.33609 14.4832 4.92829L13.8853 5.51461C13.491 5.9013 12.8579 5.89513 12.4712 5.50081C12.0845 5.1065 12.0906 4.47336 12.485 4.08667L13.0828 3.50034ZM2 8C2 7.44772 2.44772 7 3 7H5C5.55228 7 6 7.44772 6 8C6 8.55228 5.55228 9 5 9H3C2.44772 9 2 8.55228 2 8ZM10.0083 7.39591C10.6429 7.13443 11.3235 7 12.0106 7C12.6977 7 13.3784 7.13443 14.0129 7.39591C14.6475 7.6574 15.2237 8.04096 15.7074 8.52509C16.0978 8.91579 16.0975 9.54895 15.7068 9.9393C15.3161 10.3296 14.6829 10.3294 14.2926 9.93867C13.9969 9.64276 13.643 9.40662 13.2509 9.24506C12.8588 9.08348 12.4371 9 12.0106 9C11.5842 9 11.1624 9.08348 10.7703 9.24506C10.3783 9.40662 10.0243 9.64276 9.72867 9.93867L9.72146 9.94588L9.72142 9.94585L4.93842 14.6364C4.33521 15.228 4 16.0261 4 16.8541C4 17.6821 4.33521 18.4802 4.93842 19.0717C5.54228 19.6639 6.36537 20 7.22762 20C8.08986 20 8.91296 19.6639 9.51682 19.0717L10.1147 18.4854C10.509 18.0987 11.1421 18.1049 11.5288 18.4992C11.9155 18.8935 11.9094 19.5266 11.515 19.9133L10.9172 20.4997C9.93537 21.4625 8.60784 22 7.22762 22C5.84739 22 4.51987 21.4625 3.53807 20.4997C2.5556 19.5362 2 18.2252 2 16.8541C2 15.4829 2.5556 14.172 3.53807 13.2085L8.31759 8.52132C8.80051 8.03896 9.37543 7.65672 10.0083 7.39591ZM18 16C18 15.4477 18.4477 15 19 15H21C21.5523 15 22 15.4477 22 16C22 16.5523 21.5523 17 21 17H19C18.4477 17 18 16.5523 18 16ZM16 18C16.5523 18 17 18.4477 17 19V21C17 21.5523 16.5523 22 16 22C15.4477 22 15 21.5523 15 21V19C15 18.4477 15.4477 18 16 18Z" fill="black"/>
</svg>

<svg
  width="24"
  height="24"
  viewBox="0 0 24 24"
  xmlns="http://www.w3.org/2000/svg"
>
  <path
    fill-rule="evenodd"
    clip-rule="evenodd"
    d="M8 2a1 1 0 0 1 1 1v2a1 1 0 0 1-2 0V3a1 1 0 0 1 1-1zm5.083 1.5a5.27 5.27 0 0 1 3.69-1.5 5.27 5.27 0 0 1 3.689 1.5l-.692.705.692-.705A5.106 5.106 0 0 1 22 7.146a5.106 5.106 0 0 1-1.538 3.645l-4.78 4.688a5.19 5.19 0 0 1-1.69 1.125 5.256 5.256 0 0 1-4.005 0 5.19 5.19 0 0 1-1.694-1.13 1 1 0 1 1 1.414-1.413c.296.296.65.532 1.042.694a3.256 3.256 0 0 0 2.48 0 3.189 3.189 0 0 0 1.042-.694l.007-.007 4.784-4.69c.603-.592.938-1.39.938-2.218 0-.828-.335-1.626-.938-2.218A3.27 3.27 0 0 0 16.772 4a3.27 3.27 0 0 0-2.289.928l-.598.587a1 1 0 1 1-1.4-1.428l.598-.587zM2 8a1 1 0 0 1 1-1h2a1 1 0 0 1 0 2H3a1 1 0 0 1-1-1zm8.008-.604a5.257 5.257 0 0 1 4.005 0 5.19 5.19 0 0 1 1.694 1.13 1 1 0 1 1-1.414 1.413 3.19 3.19 0 0 0-1.042-.694 3.256 3.256 0 0 0-2.48 0 3.19 3.19 0 0 0-1.042.694l-.008.007-4.783 4.69A3.106 3.106 0 0 0 4 16.854c0 .828.335 1.626.938 2.218a3.27 3.27 0 0 0 2.29.928 3.27 3.27 0 0 0 2.289-.928l.598-.587a1 1 0 1 1 1.4 1.428l-.598.587a5.27 5.27 0 0 1-3.69 1.5 5.27 5.27 0 0 1-3.689-1.5A5.106 5.106 0 0 1 2 16.854c0-1.371.556-2.682 1.538-3.645l4.78-4.688a5.19 5.19 0 0 1 1.69-1.125zM18 16a1 1 0 0 1 1-1h2a1 1 0 1 1 0 2h-2a1 1 0 0 1-1-1zm-2 2a1 1 0 0 1 1 1v2a1 1 0 1 1-2 0v-2a1 1 0 0 1 1-1z"
  />
</svg>
